!! 00000] TT[WS
!!!OTL: Chungeng qu
!!!ARE: Asia, China, Shanxi Zuoquan
!! Ethnic Group: Han
!! WII, 246
!!!SCT: J0768
!!!YEM: Copyright 1995, estate of Helmut Schaffrath.
**kern
*ICvox
*Ivox
*M4/4
*k[b-]
*F:
{4dd
8dd
8cc
4dd
8dd
8ff
=1
8a
8g
8a
8cc
2dd
=2
8cc
8dd
8cc
8a
4g
8f
8g
=3
8cc
8a
8g
8f
4d
4r}
=4
{4dd
8dd
8cc
4dd
8dd
8ff
=5
8a
8g
8a
8cc
2dd
=6
8cc
8dd
8cc
8a
4g
8f
8g
=7
8cc
8a
8g
8f
4d
4r}
=8
{8a
8g
8f
8g
8a
8g
4a
=9
8cc
8a
8g
8f
4d
4r}
=10
{8dd
8cc
4a
8dd
8cc
4a
=11
8a
8g
8a
8cc
8dd
8cc
4dd
=12
8cc
8dd
8cc
8a
4g
8f
8g
=13
8cc
8a
8g
8f
2d}
==
!!!AGN: Xiaodiao. Laodong, Xinminge
!!!ONB: ESAC (Essen Associative Code) Database: CHINA
!!!AMT: simple quadruple
!!!AIN: vox
!!!EED: Helmut Schaffrath
!!!EEV: 1.0
*-
